X:149
T:McFadden's Handsome Daughter (reel) 
F:file ID gstc/149mcfad_hd
Z:bill@capeirish.com
N:O'Neill ("Music of Ireland" #1289) has this as a 3-part tune in 
the key of A.
Q:180
M:4/4
R:reel
K:G
D3E GABG|AGAB AEGE|DCDE GABG|AGEF G2 GE|
D2 B,D G,DB,D|cABG AEGE|D2 B,D GABG|AGEF G2||
Bc|dB B2 eB B2|AGAB AEGE|d2 Bd eBdB|AGEF G2 BA|
G2 Bd edge|dBcG AEGE|gefd efge|dBcG A2 GE||

